X:1
T: Da Rain Dancin'
C:
R:Reel
Q: 232
K:D
M:4/4
L:1/8
g2|:fe dc dB fB|dB fB eA ce|fe dc dB b2|-ba fa gf eg|
fe dc dB fB|dB fB eA ce|fe dc dB b2|-ba fa gf eg|
fA AA aA fA|dB BB bB ag|fA dc dB fe|fa gf ed ce|
|1fA AA aA fA|dB BB bB ag|fa gf ed cB|cA eA fA eA:|
|2fA AA aA fA|dB BB bB ag|f1/2g1/2a gf ed cB|AG FE D2||
